assets/imgs/bg-shape-7.svg

<svg xmlns="http://www.w3.org/2000/svg" width="1920" height="1159" fill="none" xmlns:v="https://vecta.io/nano"><style><![CDATA[.B{stroke:#fff}.C{stroke-opacity:.15}.D{stroke-width:.878}]]></style><mask id="A" maskUnits="userSpaceOnUse" x="0" y="0" width="1920" height="1159" mask-type="alpha"><rect width="1920" height="1159" rx="10" fill="#1c1c1c"/></mask><g mask="url(#A)" class="B C D"><path d="M562.874 923.373S374.953 739.988 121.913 741.464c-253.061 1.466 143.659 594.646 143.659 594.646-.008-.02-22.001-33.5-22.001-33.5m308.97-392.722S365.993 720.443 112.724 724.195c-253.258 3.752 138.865 618.455 138.865 618.455-.008-.02-21.742-34.72-21.742-34.72m312.085-411.941S356.739 700.463 103.251 706.501s134.078 642.259 134.078 642.259c-.008-.02-21.483-35.94-21.483-35.94m315.075-431.345S347.069 679.866 93.348 688.187c-253.727 8.326 129.307 666.053 129.307 666.053-.009-.02-21.227-37.16-21.227-37.16m318.434-450.192S337.346 659.212 83.378 669.814s124.55 689.856 124.55 689.856c-.009-.02-20.972-38.37-20.972-38.37m321.785-469.064S327.541 638.47 73.312 651.352c-254.237 12.887 119.805 713.668 119.805 713.668-.008-.02-20.718-39.59-20.718-39.59m325.187-487.925S317.691 617.645 63.168 632.811s115.075 737.499 115.075 737.499c-.009-.02-20.467-40.82-20.467-40.82m328.615-506.773S307.788 596.758 52.979 614.222c-254.807 17.443 110.357 761.328 110.357 761.328-.009-.02-20.217-42.03-20.217-42.03"/><path d="M195.423 605.182s308.542 115.11 393.529 386.85C673.937 1263.75-251.6 1117.55-251.6 1117.55l52.133 7.82"/><path d="M181.05 592.571s303.222 117.734 390.04 388.227S-248.938 1095.6-248.938 1095.6l51.074 8.37"/><path d="M166.536 577.794s297.899 120.352 386.542 389.595-799.492 104.101-799.492 104.101l50.014 8.9"/><path d="M151.883 562.868s292.575 122.965 383.042 390.976c90.472 268.006-778.959 93.406-778.959 93.406l48.955 9.44"/><path d="M137.11 547.79s287.239 125.553 379.525 392.33c92.283 266.76-758.431 82.73-758.431 82.73l47.895 9.97"/><path d="M122.209 532.645S404.118 660.8 498.208 926.322s-737.91 72.062-737.91 72.062l46.836 10.506"/><path d="M106.733 517.925s276.576 130.752 372.461 395.018-717.413 61.411-717.413 61.411l45.775 11.035"/><path d="M91.036 503.259s271.241 133.343 368.912 396.35c97.682 263.021-696.896 50.792-696.896 50.792l44.716 11.568"/><path d="M74.399 489.504s265.894 135.909 365.357 397.693c99.459 261.763-676.393 40.17-676.393 40.17l43.655 12.097"/><path d="M57.026 476.429s260.551 138.487 361.782 399.01-655.898 29.562-655.898 29.562l42.596 12.629"/><path d="M38.968 463.995s255.205 141.061 358.192 400.319-635.409 18.971-635.409 18.971l41.535 13.159"/><path d="M20.292 452.176s249.854 143.627 354.586 401.619c104.741 258.005-614.946 8.403-614.946 8.403l40.476 13.685M1.534 441.062S246.026 587.23 352.503 843.991c106.474 256.739-594.465-2.135-594.465-2.135l39.415 14.212m185.323-425.484s239.131 148.721 347.326 404.212c108.198 255.484-574.003-12.675-574.003-12.675l38.354 14.737m170.858-415.794s233.763 151.268 343.664 405.485-553.551-23.196-553.551-23.196l37.293 15.262m156.258-406.209s228.385 153.79 339.981 406.75-533.125-33.693-533.125-33.693l36.23 15.785m141.635-396.735s223.007 156.322 336.271 408.006-512.695-44.177-512.695-44.177l35.169 16.307m126.953-387.333s217.621 158.846 332.542 409.269-492.272-54.623-492.272-54.623c-.008.004 34.108 16.83 34.108 16.83"/></g></svg>

<svg width="1920" height="1159" viewBox="0 0 1920 1159" fill="none" xmlns="http://www.w3.org/2000/svg">
<mask id="mask0_638_1485" style="mask-type:alpha" maskUnits="userSpaceOnUse" x="0" y="0" width="1920" height="1159">
<rect width="1920" height="1159" rx="10" fill="#1C1C1C"/>
</mask>
<g mask="url(#mask0_638_1485)">
<path d="M562.874 923.373C562.874 923.373 374.953 739.988 121.913 741.464C-131.148 742.93 265.572 1336.11 265.572 1336.11C265.564 1336.09 243.571 1302.61 243.571 1302.61" stroke="white" stroke-opacity="0.15" stroke-width="0.877694"/>
<path d="M552.541 909.888C552.541 909.888 365.993 720.443 112.724 724.195C-140.534 727.947 251.589 1342.65 251.589 1342.65C251.581 1342.63 229.847 1307.93 229.847 1307.93" stroke="white" stroke-opacity="0.15" stroke-width="0.877694"/>
<path d="M541.932 895.989C541.932 895.989 356.739 700.463 103.251 706.501C-150.235 712.542 237.329 1348.76 237.329 1348.76C237.321 1348.74 215.846 1312.82 215.846 1312.82" stroke="white" stroke-opacity="0.15" stroke-width="0.877694"/>
<path d="M530.921 881.475C530.921 881.475 347.069 679.866 93.3479 688.187C-160.379 696.513 222.655 1354.24 222.655 1354.24C222.646 1354.22 201.428 1317.08 201.428 1317.08" stroke="white" stroke-opacity="0.15" stroke-width="0.877694"/>
<path d="M519.862 866.888C519.862 866.888 337.346 659.212 83.3784 669.814C-170.588 680.418 207.928 1359.67 207.928 1359.67C207.919 1359.65 186.956 1321.3 186.956 1321.3" stroke="white" stroke-opacity="0.15" stroke-width="0.877694"/>
<path d="M508.741 852.236C508.741 852.236 327.541 638.47 73.3119 651.352C-180.925 664.239 193.117 1365.02 193.117 1365.02C193.109 1365 172.399 1325.43 172.399 1325.43" stroke="white" stroke-opacity="0.15" stroke-width="0.877694"/>
<path d="M497.586 837.505C497.586 837.505 317.691 617.645 63.1679 632.811C-191.354 647.98 178.243 1370.31 178.243 1370.31C178.234 1370.29 157.776 1329.49 157.776 1329.49" stroke="white" stroke-opacity="0.15" stroke-width="0.877694"/>
<path d="M486.391 822.717C486.391 822.717 307.788 596.758 52.9789 614.222C-201.828 631.665 163.336 1375.55 163.336 1375.55C163.327 1375.53 143.119 1333.52 143.119 1333.52" stroke="white" stroke-opacity="0.15" stroke-width="0.877694"/>
<path d="M195.423 605.182C195.423 605.182 503.965 720.292 588.952 992.032C673.937 1263.75 -251.6 1117.55 -251.6 1117.55L-199.467 1125.37" stroke="white" stroke-opacity="0.15" stroke-width="0.877694"/>
<path d="M181.05 592.571C181.05 592.571 484.272 710.305 571.09 980.798C657.912 1251.29 -248.938 1095.6 -248.938 1095.6L-197.864 1103.97" stroke="white" stroke-opacity="0.15" stroke-width="0.877694"/>
<path d="M166.536 577.794C166.536 577.794 464.435 698.146 553.078 967.389C641.724 1236.63 -246.414 1071.49 -246.414 1071.49L-196.4 1080.39" stroke="white" stroke-opacity="0.15" stroke-width="0.877694"/>
<path d="M151.883 562.868C151.883 562.868 444.458 685.833 534.925 953.844C625.397 1221.85 -244.034 1047.25 -244.034 1047.25L-195.079 1056.69" stroke="white" stroke-opacity="0.15" stroke-width="0.877694"/>
<path d="M137.11 547.79C137.11 547.79 424.349 673.343 516.635 940.12C608.918 1206.88 -241.796 1022.85 -241.796 1022.85L-193.901 1032.82" stroke="white" stroke-opacity="0.15" stroke-width="0.877694"/>
<path d="M122.209 532.645C122.209 532.645 404.118 660.8 498.208 926.322C592.301 1191.84 -239.702 998.384 -239.702 998.384L-192.866 1008.89" stroke="white" stroke-opacity="0.15" stroke-width="0.877694"/>
<path d="M106.733 517.925C106.733 517.925 383.309 648.677 479.194 912.943C575.082 1177.21 -238.219 974.354 -238.219 974.354L-192.444 985.389" stroke="white" stroke-opacity="0.15" stroke-width="0.877694"/>
<path d="M91.0363 503.259C91.0363 503.259 362.277 636.602 459.948 899.609C557.63 1162.63 -236.948 950.401 -236.948 950.401L-192.232 961.969" stroke="white" stroke-opacity="0.15" stroke-width="0.877694"/>
<path d="M74.399 489.504C74.399 489.504 340.293 625.413 439.756 887.197C539.215 1148.96 -236.637 927.367 -236.637 927.367L-192.982 939.464" stroke="white" stroke-opacity="0.15" stroke-width="0.877694"/>
<path d="M57.0262 476.429C57.0262 476.429 317.577 614.916 418.808 875.439C520.041 1135.96 -237.09 905.001 -237.09 905.001L-194.494 917.63" stroke="white" stroke-opacity="0.15" stroke-width="0.877694"/>
<path d="M38.9675 463.995C38.9675 463.995 294.172 605.056 397.159 864.314C500.149 1123.57 -238.25 883.285 -238.25 883.285L-196.715 896.444" stroke="white" stroke-opacity="0.15" stroke-width="0.877694"/>
<path d="M20.2922 452.176C20.2922 452.176 270.146 595.803 374.878 853.795C479.619 1111.8 -240.068 862.198 -240.068 862.198L-199.592 875.883" stroke="white" stroke-opacity="0.15" stroke-width="0.877694"/>
<path d="M1.53446 441.062C1.53446 441.062 246.026 587.23 352.503 843.991C458.977 1100.73 -241.962 841.856 -241.962 841.856L-202.547 856.068" stroke="white" stroke-opacity="0.15" stroke-width="0.877694"/>
<path d="M-17.2245 430.584C-17.2245 430.584 221.906 579.305 330.102 834.796C438.3 1090.28 -243.901 822.121 -243.901 822.121L-205.547 836.858" stroke="white" stroke-opacity="0.15" stroke-width="0.877694"/>
<path d="M-34.6888 421.064C-34.6888 421.064 199.074 572.332 308.975 826.549C418.876 1080.77 -244.576 803.353 -244.576 803.353L-207.283 818.615" stroke="white" stroke-opacity="0.15" stroke-width="0.877694"/>
<path d="M-51.0255 412.406C-51.0255 412.406 177.359 566.196 288.955 819.156C400.55 1072.12 -244.17 785.463 -244.17 785.463L-207.94 801.248" stroke="white" stroke-opacity="0.15" stroke-width="0.877694"/>
<path d="M-66.3045 404.513C-66.3045 404.513 156.702 560.835 269.966 812.519C383.23 1064.2 -242.729 768.342 -242.729 768.342L-207.56 784.649" stroke="white" stroke-opacity="0.15" stroke-width="0.877694"/>
<path d="M-80.606 397.316C-80.606 397.316 137.015 556.162 251.936 806.585C366.856 1057.01 -240.336 751.962 -240.336 751.962C-240.344 751.966 -206.228 768.792 -206.228 768.792" stroke="white" stroke-opacity="0.15" stroke-width="0.877694"/>
</g>
</svg>
